X:1
T:Title
%%score { ( 1 3 4 ) | 2 }
L:1/8
Q:1/4=100
M:2/4
K:Bb
V:1 treble nm="Grand Piano"
V:3 treble 
V:4 treble 
V:2 bass 
V:1
 [DF][DF] [EG][EB] | [DB]2 [DF]2 | [B,D][DF] [FB][Fd] | c4 | dd cF | B2 z2 | [DG][DB] [=EA][EG] | %7
w: Adam~Geibel * * *|||||||
[M:5/8] F-F- F3 |[M:4/4] F6 z2 | G6 z2 | G6 z2 | A6 z2 | B6 z2 | A4 z4 | z D D>D Ed c>F | B6 z2 |] %16
w: |||||||||
V:2
 [B,,B,][B,,B,] [E,B,][E,G,] | [B,,F,]2 [B,,B,]2 | [B,,F,][B,,B,] [D,B,][B,,B,] | [F,A,F]4 | %4
 [B,F][B,F] [A,CF][A,C] | [G,CF]2[K:bass] [F,CF]2 | [B,,B,][B,,G,] [C,C][C,B,] | %7
[M:5/8] [F,A,]-[F,A,]- [F,A,]3 |[M:4/4] [B,,B,][B,,B,] [B,,B,]>[B,,B,] .[B,,B,]2 z2 | %9
 [E,B,E][E,B,] [E,B,]>[E,B,] [E,B,]2 z2 | [C,C][C,C] [C,C]>[C,C] .[C,C]2 z2 | %11
 [F,CF][F,C] [F,C]>[F,C] [F,C]2 z2 | [D,B,][D,B,] [D,B,]>[D,B,] .[D,B,]2 z2 | %13
 [E,B,E][E,B,] [E,B,]>[E,B,] [E,B,E]2 z2 | [F,B,D][F,B,] [F,B,]>[F,B,] .[F,A,]2 z2 | %15
 [B,,F,][B,,F,] [E,G,]>[E,G,] [B,,F,]2 z2 |] %16
V:3
 x4 | x4 | x4 | x4 | x4 | z2 A2 | x4 |[M:5/8] z2 E3 |[M:4/4] DD D>D DF B>A | z E E>E E2 z2 | %10
 =EE E>E EG c>B | z F F>F F2 z2 | FF F>F Ff d>B | z E E>E G2 z2 | F6 z2 | DD E>E D2 z2 |] %16
V:4
 x4 | x4 | x4 | x4 | x4 | z z/ =E/- E/ z/ z | x4 |[M:5/8] x5 |[M:4/4] x8 | x8 | x8 | x8 | x8 | x8 | %14
 x8 | x8 |] %16

